X:65
T:Ad mortem festinamus
C:Llibre Vermeil de Montserrat
L:1/4
K:C
V:1
F2G | A2F | G2G | C2D | F2D | E2C | DED | C2D |
F2D | E2C | DED | C3 || c2A | ced | cBA | G2F |
A2F | G2E | FAG | F3 | c2A | ced | cBA | G2F |
A2F | G2E | FAG | F3 | F2G | A2F | G2G | C2D |
F2D | E2C | DED | C2D | F2D | E2C | DED | C3 |]
V:2
F3 | F3 | C3 | C3  F3 | C3 | G3 | C3 |
F3 | C3 | G3 | C3 || F3 | F3 | F3 | C3 |
F3 | C3 | F3 | F3 |  F3 | F3 | F3 | C3 |
F3 | C3 | F3 | F3 |  F3 | F3 | C3 | C3 |
F3 | C3 | G3 | C3 | F3 | C3 | G3 | C3 |]





